flaticon/symbols/gods-protection.svg

<svg xmlns="http://www.w3.org/2000/svg" width="32" height="32" viewBox="0 0 24 24">
    <path d="M 22.363281 11.828125 C 22.578125 11.609375 22.882812 11.277344 23.21875 10.867188 C 24.015625 9.890625 24.214844 8.601562 23.757812 7.410156 C 23.300781 6.226562 22.289062 5.40625 21.050781 5.21875 L 20.976562 5.207031 C 19.984375 5.070312 18.984375 5.28125 18.105469 5.78125 C 18.5625 4.929688 18.75 3.972656 18.617188 3.027344 L 18.609375 2.953125 C 18.417969 1.714844 17.601562 0.699219 16.414062 0.242188 C 15.226562 -0.214844 13.933594 -0.015625 12.957031 0.78125 C 12.558594 1.105469 12.277344 1.445312 12.089844 1.707031 C 11.828125 1.460938 11.453125 1.117188 11.042969 0.78125 C 10.066406 -0.015625 8.773438 -0.214844 7.585938 0.242188 C 6.398438 0.699219 5.582031 1.710938 5.394531 2.949219 L 5.382812 3.027344 C 5.25 3.972656 5.4375 4.929688 5.894531 5.78125 C 5.015625 5.28125 4.015625 5.070312 3.023438 5.207031 L 2.949219 5.21875 C 1.710938 5.40625 0.699219 6.226562 0.242188 7.410156 C -0.214844 8.601562 -0.015625 9.890625 0.78125 10.867188 C 1.113281 11.277344 1.421875 11.609375 1.632812 11.828125 C 1.421875 12.046875 1.113281 12.375 0.78125 12.785156 C -0.015625 13.761719 -0.214844 15.054688 0.242188 16.242188 C 0.699219 17.425781 1.710938 18.246094 2.949219 18.433594 L 3.023438 18.445312 C 3.226562 18.472656 3.425781 18.488281 3.625 18.488281 C 4.554688 18.488281 5.464844 18.191406 6.253906 17.644531 C 5.535156 18.625 5.21875 19.808594 5.382812 20.976562 L 5.390625 21.050781 C 5.578125 22.265625 6.410156 23.273438 7.625 23.742188 C 8.863281 24.21875 10.238281 24.019531 11.214844 23.222656 C 11.621094 22.890625 11.949219 22.546875 12.175781 22.292969 C 12.398438 22.546875 12.726562 22.890625 13.132812 23.222656 C 13.761719 23.734375 14.511719 24 15.273438 24 C 15.671875 24 16.074219 23.925781 16.460938 23.777344 C 17.613281 23.332031 18.417969 22.3125 18.609375 21.054688 L 18.617188 20.976562 C 18.78125 19.808594 18.464844 18.625 17.746094 17.644531 C 18.535156 18.191406 19.445312 18.488281 20.375 18.488281 C 20.574219 18.488281 20.773438 18.472656 20.976562 18.445312 L 21.050781 18.433594 C 22.289062 18.246094 23.300781 17.425781 23.757812 16.242188 C 24.214844 15.054688 24.015625 13.761719 23.21875 12.785156 C 22.882812 12.375 22.578125 12.046875 22.363281 11.828125 Z M 6.1875 3.140625 L 6.199219 3.074219 C 6.34375 2.128906 6.96875 1.355469 7.878906 1.003906 C 8.203125 0.878906 8.535156 0.820312 8.863281 0.820312 C 9.460938 0.820312 10.042969 1.023438 10.527344 1.414062 C 11.0625 1.851562 11.550781 2.3125 11.765625 2.523438 L 11.765625 3.265625 L 10.542969 3.265625 C 10.316406 3.265625 10.136719 3.449219 10.136719 3.671875 C 10.136719 3.898438 10.316406 4.082031 10.542969 4.082031 L 11.765625 4.082031 L 11.765625 5.886719 C 11.765625 6.109375 11.949219 6.292969 12.175781 6.292969 C 12.398438 6.292969 12.582031 6.109375 12.582031 5.886719 L 12.582031 4.082031 L 13.804688 4.082031 C 14.03125 4.082031 14.210938 3.898438 14.210938 3.671875 C 14.210938 3.449219 14.03125 3.265625 13.804688 3.265625 L 12.582031 3.265625 L 12.582031 2.453125 C 12.675781 2.289062 12.949219 1.839844 13.472656 1.414062 C 14.21875 0.804688 15.210938 0.652344 16.121094 1.003906 C 17.03125 1.355469 17.660156 2.128906 17.800781 3.078125 L 17.8125 3.136719 C 17.964844 4.246094 17.589844 5.382812 16.78125 6.253906 L 12.890625 10.445312 L 12 11.269531 L 11.109375 10.445312 L 7.21875 6.253906 C 6.410156 5.382812 6.035156 4.246094 6.1875 3.140625 Z M 3.136719 17.636719 L 3.074219 17.628906 C 2.128906 17.484375 1.351562 16.855469 1.003906 15.949219 C 0.652344 15.035156 0.804688 14.046875 1.414062 13.300781 C 1.832031 12.789062 2.203125 12.410156 2.378906 12.234375 L 3.207031 12.234375 L 3.207031 13.457031 C 3.207031 13.683594 3.386719 13.863281 3.613281 13.863281 C 3.839844 13.863281 4.019531 13.683594 4.019531 13.457031 L 4.019531 12.234375 L 5.886719 12.234375 C 6.109375 12.234375 6.292969 12.050781 6.292969 11.828125 C 6.292969 11.601562 6.109375 11.417969 5.886719 11.417969 L 4.019531 11.417969 L 4.019531 10.195312 C 4.019531 9.96875 3.839844 9.789062 3.613281 9.789062 C 3.386719 9.789062 3.207031 9.96875 3.207031 10.195312 L 3.207031 11.417969 L 2.378906 11.417969 C 2.203125 11.246094 1.832031 10.867188 1.414062 10.351562 C 0.804688 9.605469 0.652344 8.617188 1.003906 7.703125 C 1.351562 6.796875 2.128906 6.167969 3.078125 6.023438 L 3.136719 6.015625 C 4.246094 5.859375 5.382812 6.238281 6.253906 7.046875 L 10.535156 11.023438 L 11.335938 11.886719 L 6.253906 16.605469 C 5.382812 17.414062 4.246094 17.792969 3.136719 17.636719 Z M 17.8125 20.863281 L 17.800781 20.925781 C 17.65625 21.894531 17.042969 22.675781 16.167969 23.015625 C 15.316406 23.34375 14.375 23.183594 13.648438 22.589844 C 13.125 22.160156 12.738281 21.707031 12.582031 21.511719 L 12.582031 20.796875 L 13.804688 20.796875 C 14.03125 20.796875 14.214844 20.613281 14.214844 20.386719 C 14.214844 20.164062 14.03125 19.980469 13.804688 19.980469 L 12.582031 19.980469 L 12.582031 18.117188 C 12.582031 17.890625 12.398438 17.707031 12.175781 17.707031 C 11.949219 17.707031 11.765625 17.890625 11.765625 18.117188 L 11.765625 19.980469 L 10.542969 19.980469 C 10.320312 19.980469 10.136719 20.164062 10.136719 20.386719 C 10.136719 20.613281 10.320312 20.796875 10.542969 20.796875 L 11.765625 20.796875 L 11.765625 21.511719 C 11.609375 21.707031 11.226562 22.160156 10.699219 22.589844 C 9.949219 23.203125 8.882812 23.351562 7.917969 22.980469 C 6.980469 22.621094 6.339844 21.851562 6.199219 20.925781 L 6.1875 20.863281 C 6.035156 19.753906 6.410156 18.621094 7.21875 17.75 L 12 12.601562 L 16.78125 17.75 C 17.589844 18.617188 17.964844 19.753906 17.8125 20.863281 Z M 22.996094 15.949219 C 22.648438 16.855469 21.871094 17.484375 20.921875 17.628906 L 20.863281 17.636719 C 19.75 17.789062 18.617188 17.414062 17.746094 16.605469 L 12.664062 11.886719 L 13.464844 11.023438 L 17.746094 7.046875 C 18.617188 6.238281 19.753906 5.863281 20.863281 6.015625 L 20.925781 6.023438 C 21.871094 6.167969 22.644531 6.796875 22.996094 7.703125 C 23.347656 8.617188 23.195312 9.605469 22.585938 10.351562 C 22.167969 10.867188 21.796875 11.246094 21.621094 11.417969 L 20.734375 11.417969 L 20.734375 10.195312 C 20.734375 9.972656 20.554688 9.789062 20.328125 9.789062 C 20.101562 9.789062 19.921875 9.972656 19.921875 10.195312 L 19.921875 11.417969 L 18.113281 11.417969 C 17.890625 11.417969 17.707031 11.601562 17.707031 11.828125 C 17.707031 12.050781 17.890625 12.234375 18.113281 12.234375 L 19.921875 12.234375 L 19.921875 13.457031 C 19.921875 13.683594 20.101562 13.867188 20.328125 13.867188 C 20.554688 13.867188 20.734375 13.683594 20.734375 13.457031 L 20.734375 12.234375 L 21.621094 12.234375 C 21.796875 12.410156 22.167969 12.789062 22.585938 13.300781 C 23.195312 14.046875 23.347656 15.035156 22.996094 15.949219 Z M 22.996094 15.949219"/>
</svg>

<svg xmlns="http://www.w3.org/2000/svg" width="32" height="32" viewBox="0 0 24 24">
    <path d="M22.363 11.828c.215-.219.52-.55.856-.96.797-.977.996-2.266.539-3.458-.457-1.183-1.469-2.004-2.707-2.191l-.074-.012a4.54 4.54 0 0 0-2.872.574 4.492 4.492 0 0 0 .512-2.754l-.008-.074a3.442 3.442 0 0 0-2.195-2.71 3.448 3.448 0 0 0-3.457.538c-.398.324-.68.664-.867.926a20.81 20.81 0 0 0-1.047-.926A3.448 3.448 0 0 0 7.586.242C6.398.7 5.582 1.711 5.395 2.95l-.012.078a4.492 4.492 0 0 0 .512 2.754 4.54 4.54 0 0 0-2.872-.574l-.074.012C1.711 5.406.7 6.227.242 7.41c-.457 1.192-.258 2.48.54 3.457.331.41.64.742.85.961-.21.219-.519.547-.85.957a3.448 3.448 0 0 0-.54 3.457c.457 1.184 1.469 2.004 2.707 2.192l.074.011c.204.028.403.043.602.043.93 0 1.84-.297 2.629-.843-.719.98-1.035 2.164-.871 3.332l.008.074c.187 1.215 1.02 2.222 2.234 2.691 1.238.477 2.613.278 3.59-.52.406-.331.734-.675.96-.929.223.254.552.598.958.93a3.383 3.383 0 0 0 2.14.777c.399 0 .801-.074 1.188-.223 1.152-.445 1.957-1.465 2.148-2.722l.008-.078c.164-1.168-.152-2.352-.87-3.332.788.546 1.698.843 2.628.843.2 0 .398-.015.602-.043l.074-.011c1.238-.188 2.25-1.008 2.707-2.192a3.448 3.448 0 0 0-.54-3.457 14.49 14.49 0 0 0-.855-.957zM6.188 3.141l.011-.067a2.627 2.627 0 0 1 1.68-2.07c.324-.125.656-.184.984-.184.598 0 1.18.203 1.664.594.536.438 1.024.899 1.239 1.11v.742h-1.223a.406.406 0 0 0-.406.406c0 .226.18.41.406.41h1.223v1.805a.408.408 0 0 0 .816 0V4.082h1.223a.407.407 0 0 0 .406-.41.406.406 0 0 0-.406-.406h-1.223v-.813c.094-.164.367-.613.89-1.039a2.639 2.639 0 0 1 2.65-.41c.91.351 1.538 1.125 1.679 2.074l.012.059c.152 1.11-.223 2.246-1.032 3.117l-3.89 4.191-.891.825-.89-.825-3.891-4.191C6.41 5.383 6.035 4.246 6.187 3.14zM3.136 17.637l-.063-.008a2.629 2.629 0 0 1-2.07-1.68 2.638 2.638 0 0 1 .41-2.648c.418-.512.79-.89.965-1.067h.828v1.223c0 .227.18.406.406.406.227 0 .407-.18.407-.406v-1.223h1.867a.408.408 0 0 0 0-.816H4.02v-1.223a.403.403 0 0 0-.407-.406.403.403 0 0 0-.406.406v1.223h-.828c-.176-.172-.547-.55-.965-1.066a2.638 2.638 0 0 1-.41-2.649 2.629 2.629 0 0 1 2.074-1.68l.059-.007c1.11-.157 2.246.222 3.117 1.03l4.281 3.977.8.864-5.081 4.718c-.871.81-2.008 1.188-3.117 1.032zm14.675 3.226l-.011.063c-.145.969-.758 1.75-1.633 2.09-.852.328-1.793.168-2.52-.426a7.633 7.633 0 0 1-1.066-1.078v-.715h1.223a.41.41 0 0 0 .41-.41.41.41 0 0 0-.41-.407h-1.223v-1.863a.41.41 0 0 0-.406-.41.41.41 0 0 0-.41.41v1.863h-1.223a.408.408 0 0 0 0 .817h1.223v.715c-.157.195-.54.648-1.067 1.078-.75.613-1.816.762-2.781.39-.938-.359-1.578-1.128-1.719-2.054l-.011-.063c-.153-1.11.222-2.242 1.03-3.113L12 12.602l4.781 5.148c.809.867 1.184 2.004 1.032 3.113zm5.184-4.914a2.629 2.629 0 0 1-2.074 1.68l-.059.008c-1.113.152-2.246-.223-3.117-1.032l-5.082-4.718.8-.864 4.282-3.976c.871-.809 2.008-1.184 3.117-1.031l.063.007a2.635 2.635 0 0 1 2.07 1.68c.352.914.2 1.902-.41 2.649-.418.515-.79.894-.965 1.066h-.887v-1.223a.406.406 0 1 0-.812 0v1.223h-1.809a.408.408 0 0 0 0 .816h1.809v1.223a.407.407 0 1 0 .812 0v-1.223h.887c.176.176.547.555.965 1.067.61.746.762 1.734.41 2.648zm0 0"/>
</svg>
